X:1
T:Title
L:1/8
M:4/4
K:F
V:1 treble nm="Grand Piano"
V:1
 z4 z2[Q:1/4=100] C2 | A3 B AGFE | D6 D2 | B3 c BAGE | F6 C2 | c3 d dcBA | G4- GGGF | E4- EFAG | %8
 F4- FCDE | F4- FFGA | E4- ECGA | B4- Bccc | c6 C2 | A3 B AGFE | D6 D2 | B3 c BAGE | F6 C2 | %17
 c3 d dcBA | G4- GGGF | E4- EFAG | F6 z2 |] %21

